svgs/sharp-regular/cup-straw.svg

<svg xmlns="http://www.w3.org/2000/svg" viewBox="0 0 384 512"><!--! Font Awesome Pro 6.6.0 by @fontawesome - https://fontawesome.com License - https://fontawesome.com/license (Commercial License) Copyright 2024 Fonticons, Inc. --><path d="M205 0l-4.4 18.5L174.9 128l-94.7 0L32 128l-8 0L0 128l0 48 24 0 12 0 48.2 0 79.4 0 49.3 0 86.9 0 48.2 0 12 0 24 0 0-48-24 0-8 0-48.2 0-79.6 0L243 48l37 0 24 0 0-48L280 0 224 0 205 0zM38.7 208L64 512l256 0 25.3-304-48.2 0L275.8 464l-167.7 0L86.8 208l-48.2 0z"/></svg>

<svg xmlns="http://www.w3.org/2000/svg" viewBox="0 0 384 512"><!--! Font Awesome Pro 6.4.0 by @fontawesome - https://fontawesome.com License - https://fontawesome.com/license (Commercial License) Copyright 2023 Fonticons, Inc. --><path d="M205 0l-4.4 18.5L174.9 128H80.2 32 24 0v48H24 36 84.2h79.4 49.3 86.9H348h12 24V128H360h-8H303.8 224.2L243 48h37 24V0H280 224 205zM38.7 208L64 512H320l25.3-304H297.2L275.8 464H108.2L86.8 208H38.7z"/></svg>
